X:1
T:F Major William Billings, 1794
T:Adapted from Psalm 126.
T:When the Lord turned again Anthem. Transcribed from The Continental Harmony, 1794.
%%score [ 1 2 3 4 ]
L:1/8
Q:1/4=150
M:2/2
K:F
V:1 treble nm="Treble" snm="Tr."
V:2 treble nm="Counter" snm="C."
V:3 treble-8 nm="Tenor" snm="T."
V:4 bass nm="Bass" snm="B."
V:1
 z4 | z8 | z8 | z8 | z8 | f4 f2 e2 | f8 | (f2 ed c2) d2 | d4 d2 d2 | (d2 c2) c2 c2 | c4 f2 ed | %11
 e8 | f4 f2 ed | c8 | (c4 d2) ef | (g2 e2) c2 e2 | (f2 d2) e2 f2 | f4 d2 c2 | d4 c2 c2 | c8 | z8 | %21
 z8 | z8 | z8 | z8 |: f4 f2 e2 | f8 | (f2 ed c2) c2 | d4 c2 B2 | (A2 B2) c2 de | f8 | c4 c2 c2 | %32
 c8 | (d2 e2 f2) d2 | c4 c2 e2 | f4 c2 de | f4 d2 d2 | (d2 G2) c2 c2 | c8 :| %39
"^For  they  said  a – mong    the  heathen, The Lord hath done great  things  for  them,  Whereof  they are glad,  The" A4 C4 | %40
 F6 G2 | (A2 G2 A2) B2 | c4 B2 B2 | A4 (G2 F2) | G4 (F2 E2) | (F2 G2) (A2 B2) | c6 c2 | %47
 (d2 f2) e2 d2 | (d c3) c4 |: %49
"^Lord        hath       done    great  things     for               them,  The Lord hath done great things for them,  whereof    they  are" c4 (A2 c2) | %50
 f6 e2 | (d2 c2) =B4 | c6 A2 | B2 d2 c2 f2 | c2 B2 A2 B2 | (c2 B2) A2 F2 | %56
"^glad,     The              Lord he hath done     great       things      for             them,              whereof     they  are   glad,  The        glad." G4 A4 | %57
 c4 d2 e2 | (f2 d2) (e2 c2) | (d2 f2) (e2 g2) | (f4 e2) d2 | (c2 d2) c2 c2 |1 c4 c4 :|2 c8 || z8 | %65
 z8 | z8 | z8 | z8 | z8 |: z8 | z4"^For        those that sow in tears       shall" c4 | %72
 c2 c2 f2 g2 | c6 d2 | %74
"^reap            in     joy,                     shall  reap,    shall      reap,       shall       reap.              shall  reap  in  joy,  shall  reap in joy, shall" (e3 d c2) c2 | %75
 c6 c2 | d4 G4 | c4 f4 | (e3 d c2) B2 | A2 A2 A2 AB | c2 c2 c2 c2 | %81
"^reap  in  joy,  shall  reap  in         joy. _________                                    For    they that sow in   tears             shall       reap               in" f2 e2 f2 fe | %82
 d2 d2 (c2 =B2 | c4) z4 | z4 c4 | d2 e2 f2 fe | (d2 ef g2) f2 | (e2 de f2) e>d | %88
"^joy,                                               shall    reap,     shall          reap,       shall            reap ________  in          joy," c8 | %89
 z4 c4 | c4 A4 | F4 d4 | (c2 fe d2) c2 | c8 :| %94
V:2
 z4 | z8 | z8 | z8 | z8 |"^Then was our mouth filled ________ with laughter, with" F4 A2 G2 | A8 | %7
 (A3 G F2) G2 | F4 F2 F2 | %9
"^laughter, with laughter  and      joy,   Then was our mouth  filled _______ with laughter,  with laughter,  with laughter, with" G4 G2 G2 | %10
 (G2 A2) A2 G2 | G8 | A4 F2 G2 | A8 | (A4 G2) G2 | G4 G2 G2 | (F2 A2) G2 FG | A4 F2 F2 | %18
"^laughter and joy." (G2 F2) E2 E2 | F8 | z8 | z8 | z8 | z8 | z8 |: %25
"^Then was our mouth filled ____ with" A4 A2 G2 | A8 | (F2 G2 A2) F2 | %28
"^laughter,  with    laughter    and       joy,  Then was our mouth  filled     with laughter, with laughter,   with    laughter, with   laughter  and" G4 FE DE | %29
 (F2 E2) F2 G2 | A8 | A4 A2 G2 | A8 | (F2 G2 F2) F2 | G4 G2 G2 | (F2 A2) A2 G2 | (A2 F2) G2 A2 | %37
 G4 F2 E2 |"^joy." F8 :| z8 | z8 | z8 | z8 | z8 | z8 | z8 | z8 | z8 | z8 |: z8 | %50
 z4"^The Lord hath done great  things for them, whereof they are  glad,       The      Lord hath done great" A4 | %51
 F2 F2 G2 G2 | A2 A2 A2 F2 | G4 A2 F2 | G4 F4 | E2 G2 F2 F2 | %56
"^things for them, whereof they are  glad,  The Lord hath done great things  for them, whereof they are glad.               glad." E2 E2 F2 F>G | %57
 A4 A2 G2 | A4 G4 | A2 A2 G2 G2 | A3 G F2 B2 | (A2 G2) F2 E2 |1 F4 z4 :|2 F8 || %64
 z4"^Turn again   our cap–ti–vi–ty, O Lord," F3 E | F4 E2 F2 | G2 F2 E2 D2 | %67
 C4"^as the rivers in the south." D2 E2 | F2 D2 C2 =B,2 | C8 |: %70
 z4"^For those that sow in tears       shall  reap            in" F4 | F2 A2 G2 G2 | A6 G2 | %73
 (A2 BA G2) G2 | %74
"^joy,        For         they  that  sow  in   tears     shall       reap, _____  shall   reap, ____    in           joy,        shall          reap,              shall" G4 F4 | %75
 CD EF G2 F2 | F4 G4 | (A3 G F2) F2 | (G3 F E2) D2 | C4 F4 | (A2 G2 F2) F2 | %81
"^reap,           shall     reap, _________    in       joy,             in          joy,    shall  reap, ___ shall   reap, _____   shall      reap ____     in" (F2 G2 A2) A2 | %82
 (G>AGE F2) F2 | (G2 E2 C2) D>E | F6 G2 | (A2 G2 F2) F2 | (F2 C2 D2) F2 | (E2 FE D2) E2 | %88
"^joy, ____________________     For     they that sow in   tears _______  shall     reap ________  in         joy." (F2 C2 F2 EF | %89
 G4) F4 | A2 G2 F2 F2 | (F3 E D2) F2 | (E2 DE F2) E2 | F8 :| %94
V:3
"^When the Lord turned again the cap–ti–vi–ty  of    Zi – on," F3 G | A4 G3 A | B4 A2 B2 | %3
 c2 B2 A2 G2 | A4 F4 | c4 c2 c2 | c8 | (c>dc>d c2) B2 | (A2 G2) F2 A2 | (B2 G2) G2 G2 | c4 c2 =B2 | %11
 c8 | c4 d2 e2 | f8 | (e2 dc d2) G2 | c4 c2 c2 | f4 e2 d2 | c4 B2 A2 | B4 A2 G2 | F8 | z8 | z8 | %22
 z8 | z8 | z8 |: c4 c2 c2 | c8 | (c2 B2 A2) c2 | B4 A2 G2 | (F2 G2) A2 B2 | c8 | f4 f2 e2 | f8 | %33
 (f2 e2 d2) f2 | e4 c2 c2 | (c2 f2) e2 d2 | c4 B2 A2 | B4 A2 G2 | F8 :| z8 | z8 | z8 | z8 | z8 | %44
 z8 | z8 | z8 | z8 | z4"^The" c4 |: %49
"^Lord _____   hath   done  great  things     for              them,            whereof ________________________________   they           are" (f2 e2 f2) g2 | %50
 c6 A2 | (B2 c2) (d2 e2) | f6 c2 | (d2 B2 c2 A2 | G2 B2 A2 F2) | (G2 B2) (A2 B2) | %56
"^glad.            The       Lord  he  hath done   great        things      for ____     them, _____  whereof       they are glad,  The       glad." c4 z2 c2 | %57
 f4 f2 c2 | (d2 f2) (e2 g2) | f4 (e2 d2) | (c3 B A2) G2 | (F2 B2) A2 G2 |1 F4 c4 :|2 F8 || z8 | %65
 z8 | z8 | z8 | z8 | z8 |: z4"^For those that sow in tears       shall  reap            in" c4 | %71
 d2 f2 e2 c2 | f6 e2 | (f2 gf e2) d2 | %74
"^joy,           shall   reap, __________________________________________________________     in          joy,              shall     reap, _______________" c4 z2 c2 | %75
 (f2 g2 e2 c2 | d2 f2 d2 B2 | A2 c2 A2 F2 | B4 A2) B2 | c4 z2 c2 | (f2 ed c2 BA | %81
"^______________________________________________            in           joy,      shall  reap,    shall     reap, _____    shall    reap _____    in" d2 B>d c2 A2 | %82
 B2 G>B A2 F2 | c6) =B2 | c4 z2 c2 | (f2 e2 d2) c2 | (d2 c2 B2) A>B | (c2 A2 B2) AG | %88
"^joy, ______________________    shall   reap,            shall   reap,               shall    reap ________  in         joy," (F3 GA>BA>B | %89
 c4) z2 c2 | (f2 e2 d2) c2 | (d2 c2 B2) A>B | (c2 A>c B2) AG | F8 :| %94
V:4
 z4 | z8 | z8 | z8 | z8 | F,4 F,2 C,2 | F,8 | (F,3 G, A,2) G,2 | (F,2 D,2) D,2 D,2 | %9
 (G,2 E,2) C,2 C,2 | (C,2 F,2) F,2 G,2 | C,8 | F,4 D,2 C,2 | F,8 | (A,2 F,>A,G,F,) E,D, | %15
 C,4 C,2 C,2 | D,4 C,2 D,E, | F,4 F,2 F,2 | B,,4 C,2 C,2 | F,,8 | %20
 z4"^When the Lord turned again the cap–ti–vi–ty  of  Zi – on," F,3 E, | D,4 C,3 C, | F,4 G,2 A,2 | %23
 B,2 A,2 G,2 F,2 | E,4 C,4 |: F,4 F,2 C,2 | F,8 | (A,2 G,2 F,2) A,2 | G,4 A,2 B,2 | %29
 (C2 B,2) A,2 G,2 | F,8 | F,4 F,2 C,2 | F,8 | (D,2 C,2 B,,2) D,2 | C,4 C,2 C,2 | F,4 A,2 B,2 | %36
 A,4 G,2 F,2 | (G,2 E,2) C,2 C,2 | F,8 :| z8 | z8 | z8 | z8 | z8 | z8 | z8 | z8 | z8 | %48
 z4"^The" F,4 |: %49
"^Lord        hath       done    great  things     for               them,  The Lord hath done great things for them,  whereof    they  are" (F,2 C,2) (D,2 E,2) | %50
 F,6 C2 | (B,2 A,2) G,4 | F,6 A,2 | G,2 G,2 F,2 F,2 | E,2 E,2 D,2 D,2 | (C,2 D,E,) F,2 D,2 | %56
"^glad.     The               Lord  he  hath done   great       things       for            them,               whereof      they are glad,  The        glad." C,4 F,4 | %57
 F,4 F,2 E,2 | D,4 C,4 | (F,2 E,D,) C,4 | F,6 G,2 | (A,2 B,2) C2 C,2 |1 F,4 F,4 :|2 F,8 || z8 | %65
 z8 | z8 | z8 | z8 | z8 |: z4 F,4 | D,2 D,2 C,D, E,2 | (F,3 E, D,2) C,2 | (F,2 E,F, G,2) G,2 | %74
"^joy,       For         they  that  sow  in    tears          shall   reap,         shall   reap, ____       in          joy,        For            they  that  sow  in" C,4 F,4 | %75
 F,2 E,D, C,2 F,2 | (B,3 A, G,2) G,2 | (F,3 E, F,2) A,2 | (G,2 E,2 C,2) D,>E, | F,4 F,4 | %80
 F,2 C,2 F,2 F,2 | %81
"^tears ______  shall   reap ___________   in      joy,     shall           reap     in    joy, _____  in        joy, ________ shall      reap _____   in" (B,2 G,>B, A,2) F,2 | %82
 (G,2 E,>G,) F,2 D,2 | C,4 F,4 | F,6 E,2 | (D,2 C,2 D,2) F,2 | (B,2 A,2 G,2) F,2 | %87
 (C,2 D,2 B,,2) C,2 | %88
"^joy, ____________________    For     they that sow in   tears _______  shall       reap ________  in         joy." F,,8 | %89
 z4 F,4 | F,2 C,2 D,E, F,2 | (B,2 A,2 G,2) F,2 | (C,2 D,C, B,,2) C,2 | F,,8 :| %94

